ui/public/images/logo_prdv.svg

<?xml version="1.0" encoding="UTF-8"?>
<svg width="60" height="60" viewBox="0 0 211 211" xmlns="http://www.w3.org/2000/svg">
<path d="m105.5 211c58.266 0 105.5-47.234 105.5-105.5s-47.234-105.5-105.5-105.5-105.5 47.234-105.5 105.5 47.234 105.5 105.5 105.5z" fill="#EDEDED"/>
<path d="m134.8 98.4c2.485 0 4.5-2.0147 4.5-4.5s-2.015-4.5-4.5-4.5c-2.195 0-4.5 2.0147-4.5 4.5s2.015 4.5 4.5 4.5z"/>
<path d="m145.1 55.7h-5.8v-4.5c0-2.5-2-4.5-4.5-4.5s-4.5 2-4.5 4.5v4.5h-20.4v-4.5c0-2.5-2-4.5-4.5-4.5s-4.5 2-4.5 4.5v4.5h-20.2v-4.5c0-2.5-2-4.5-4.5-4.5s-4.5 2-4.5 4.5v4.5h-5.6c-9.9 0-18 8.1-18 18v70c0 9.9 8.1 18 18 18h34.3c2.5 0 4.5-2 4.5-4.5s-2-4.5-4.5-4.5h-34.3c-5 0-9-4-9-9v-70c0-5 4-9 9-9h5.6v4.5c0 2.5 2 4.5 4.5 4.5s4.5-2 4.5-4.5v-4.5h20.2v4.5c0 2.5 2 4.5 4.5 4.5s4.5-2 4.5-4.5v-4.5h20.4v4.5c0 2.5 2 4.5 4.5 4.5s4.5-2 4.5-4.5v-4.5h5.8c5 0 9 4 9 9v25.6c0 2.5 2 4.5 4.5 4.5s4.5-2 4.5-4.5v-25.6c0-9.9-8.1-18-18-18z"/>
<path d="m115.3 98.4c2.485 0 4.5-2.0147 4.5-4.5s-2.015-4.5-4.5-4.5-4.5 2.0147-4.5 4.5 2.015 4.5 4.5 4.5z"/>
<path d="m96.1 120.3c3.8108 0 6.9001-3.089 6.9001-6.9s-3.0893-6.9-6.9001-6.9c-3.8107 0-6.8999 3.089-6.8999 6.9s3.0892 6.9 6.8999 6.9z" fill="#4B2CC8"/>
<path d="m76.2 98.4c2.4852 0 4.5-2.0147 4.5-4.5s-2.0148-4.5-4.5-4.5c-2.4853 0-4.5 2.0147-4.5 4.5s2.0147 4.5 4.5 4.5z"/>
<path d="m76.2 117.9c2.4852 0 4.5-2.015 4.5-4.5s-2.0148-4.5-4.5-4.5c-2.4853 0-4.5 2.015-4.5 4.5s2.0147 4.5 4.5 4.5z"/>
<path d="m76.2 137.4c2.4852 0 4.5-2.015 4.5-4.5s-2.0148-4.5-4.5-4.5c-2.4853 0-4.5 2.015-4.5 4.5s2.0147 4.5 4.5 4.5z"/>
<path d="m95.7 137.4c2.4852 0 4.5-2.015 4.5-4.5s-2.0148-4.5-4.5-4.5c-2.4853 0-4.5 2.015-4.5 4.5s2.0147 4.5 4.5 4.5z"/>
<path d="m95.7 98.4c2.4852 0 4.5-2.0147 4.5-4.5s-2.0148-4.5-4.5-4.5c-2.4853 0-4.5 2.0147-4.5 4.5s2.0147 4.5 4.5 4.5z"/>
<path d="m166.2 121.8c-11.6-11.6-30.4-11.6-42 0s-11.6 30.4 0 42 30.4 11.6 42 0c5.6-5.6 8.7-13.1 8.7-21s-3.1-15.4-8.7-21z" fill="#74FAB6"/>
<path d="m160 154.3-1.5 1.5c-1.9 2-4.8 2.8-7.5 2.1s-5.3-1.9-7.6-3.4c-2.2-1.4-4.2-3-6-4.9-1.7-1.7-3.2-3.5-4.5-5.5-1.4-2.1-2.6-4.4-3.4-6.9-0.9-2.9-0.2-6 2-8.1l1.8-1.8c0.5-0.5 1.3-0.5 1.8 0l5.6 5.6c0.5 0.5 0.5 1.3 0 1.8l-3.3 3.3c-0.9 0.9-1.1 2.4-0.3 3.5 1.2 1.6 2.5 3.1 3.9 4.6 1.6 1.6 3.3 3 5.2 4.3 1.1 0.7 2.5 0.6 3.4-0.3l3.2-3.2c0.5-0.5 1.3-0.5 1.8 0l5.6 5.6c0.3 0.5 0.3 1.3-0.2 1.8z"/>
</svg>

<svg width="60" height="60" viewBox="0 0 211 211" fill="none" xmlns="http://www.w3.org/2000/svg">
  <path d="M105.5 211C163.766 211 211 163.766 211 105.5C211 47.234 163.766 0 105.5 0C47.234 0 0 47.234 0 105.5C0 163.766 47.234 211 105.5 211Z" fill="#EDEDED"/>
  <path d="M134.8 98.4C137.285 98.4 139.3 96.3853 139.3 93.9C139.3 91.4147 137.285 89.4 134.8 89.4C132.605 89.4 130.3 91.4147 130.3 93.9C130.3 96.3853 132.315 98.4 134.8 98.4Z" fill="black"/>
  <path d="M145.1 55.7H139.3V51.2C139.3 48.7 137.3 46.7 134.8 46.7C132.3 46.7 130.3 48.7 130.3 51.2V55.7H109.9V51.2C109.9 48.7 107.9 46.7 105.4 46.7C102.9 46.7 100.9 48.7 100.9 51.2V55.7H80.7V51.2C80.7 48.7 78.7 46.7 76.2 46.7C73.7 46.7 71.7 48.7 71.7 51.2V55.7H66.1C56.2 55.7 48.1 63.8 48.1 73.7V143.7C48.1 153.6 56.2 161.7 66.1 161.7H100.4C102.9 161.7 104.9 159.7 104.9 157.2C104.9 154.7 102.9 152.7 100.4 152.7H66.1C61.1 152.7 57.1 148.7 57.1 143.7V73.7C57.1 68.7 61.1 64.7 66.1 64.7H71.7V69.2C71.7 71.7 73.7 73.7 76.2 73.7C78.7 73.7 80.7 71.7 80.7 69.2V64.7H100.9V69.2C100.9 71.7 102.9 73.7 105.4 73.7C107.9 73.7 109.9 71.7 109.9 69.2V64.7H130.3V69.2C130.3 71.7 132.3 73.7 134.8 73.7C137.3 73.7 139.3 71.7 139.3 69.2V64.7H145.1C150.1 64.7 154.1 68.7 154.1 73.7V99.3C154.1 101.8 156.1 103.8 158.6 103.8C161.1 103.8 163.1 101.8 163.1 99.3V73.7C163.1 63.8 155 55.7 145.1 55.7Z" fill="black"/>
  <path d="M115.3 98.4C117.785 98.4 119.8 96.3853 119.8 93.9C119.8 91.4147 117.785 89.4 115.3 89.4C112.815 89.4 110.8 91.4147 110.8 93.9C110.8 96.3853 112.815 98.4 115.3 98.4Z" fill="black"/>
  <path d="M96.0999 120.3C99.9107 120.3 103 117.211 103 113.4C103 109.589 99.9107 106.5 96.0999 106.5C92.2892 106.5 89.2 109.589 89.2 113.4C89.2 117.211 92.2892 120.3 96.0999 120.3Z" fill="#4B2CC8"/>
  <path d="M76.2 98.4C78.6852 98.4 80.7 96.3853 80.7 93.9C80.7 91.4147 78.6852 89.4 76.2 89.4C73.7147 89.4 71.7 91.4147 71.7 93.9C71.7 96.3853 73.7147 98.4 76.2 98.4Z" fill="black"/>
  <path d="M76.2 117.9C78.6852 117.9 80.7 115.885 80.7 113.4C80.7 110.915 78.6852 108.9 76.2 108.9C73.7147 108.9 71.7 110.915 71.7 113.4C71.7 115.885 73.7147 117.9 76.2 117.9Z" fill="black"/>
  <path d="M76.2 137.4C78.6852 137.4 80.7 135.385 80.7 132.9C80.7 130.415 78.6852 128.4 76.2 128.4C73.7147 128.4 71.7 130.415 71.7 132.9C71.7 135.385 73.7147 137.4 76.2 137.4Z" fill="black"/>
  <path d="M95.7 137.4C98.1852 137.4 100.2 135.385 100.2 132.9C100.2 130.415 98.1852 128.4 95.7 128.4C93.2147 128.4 91.2 130.415 91.2 132.9C91.2 135.385 93.2147 137.4 95.7 137.4Z" fill="black"/>
  <path d="M95.7 98.4C98.1852 98.4 100.2 96.3853 100.2 93.9C100.2 91.4147 98.1852 89.4 95.7 89.4C93.2147 89.4 91.2 91.4147 91.2 93.9C91.2 96.3853 93.2147 98.4 95.7 98.4Z" fill="black"/>
  <path d="M166.2 121.8C154.6 110.2 135.8 110.2 124.2 121.8C112.6 133.4 112.6 152.2 124.2 163.8C135.8 175.4 154.6 175.4 166.2 163.8C171.8 158.2 174.9 150.7 174.9 142.8C174.9 134.9 171.8 127.4 166.2 121.8Z" fill="#74FAB6"/>
  <path d="M160 154.3L158.5 155.8C156.6 157.8 153.7 158.6 151 157.9C148.3 157.2 145.7 156 143.4 154.5C141.2 153.1 139.2 151.5 137.4 149.6C135.7 147.9 134.2 146.1 132.9 144.1C131.5 142 130.3 139.7 129.5 137.2C128.6 134.3 129.3 131.2 131.5 129.1L133.3 127.3C133.8 126.8 134.6 126.8 135.1 127.3L140.7 132.9C141.2 133.4 141.2 134.2 140.7 134.7L137.4 138C136.5 138.9 136.3 140.4 137.1 141.5C138.3 143.1 139.6 144.6 141 146.1C142.6 147.7 144.3 149.1 146.2 150.4C147.3 151.1 148.7 151 149.6 150.1L152.8 146.9C153.3 146.4 154.1 146.4 154.6 146.9L160.2 152.5C160.5 153 160.5 153.8 160 154.3Z" fill="black"/>
</svg>
